icons/turborepo_light.svg

<svg viewBox="0 0 24 24" fill="none" xmlns="http://www.w3.org/2000/svg">
  <path
    d="M10.786 2.00603C8.386 1.92303 5.986 2.67203 4 4.25503L5.324 5.00503C6.897 3.83803 8.883 3.33903 10.786 3.42203V2.00603Z"
    fill="#2979FF" />
  <path
    d="M17.82 5.17003C16.166 3.42203 14.014 2.34003 11.697 2.09003V3.50503C13.6466 3.82624 15.4433 4.75962 16.827 6.17003L17.821 5.17003H17.82Z"
    fill="#448AFF" />
  <path
    d="M20.8 12C20.717 9.83398 19.89 7.66998 18.483 5.83698L17.49 6.83698C18.648 8.41898 19.31 10.167 19.393 12H20.8Z"
    fill="#7E57C2" />
  <path
    d="M18.483 19.162C19.89 17.33 20.717 15.164 20.8 12.999H19.393C19.311 14.831 18.648 16.58 17.49 18.162L18.483 19.162Z"
    fill="#AB47BC" />
  <path
    d="M11.697 22.91C13.931 22.66 16.166 21.577 17.821 19.828L16.828 18.828C15.421 20.328 13.6 21.244 11.697 21.494V22.909V22.91Z"
    fill="#D81B60" />
  <path
    d="M4 20.744C5.92001 22.2814 8.32784 23.0791 10.786 22.992V21.577C8.883 21.66 6.979 21.16 5.324 19.994L4 20.744Z"
    fill="#F50057" />
  <path
    d="M10.408 6.711C11.293 6.711 12.109 6.863 12.858 7.166C13.5769 7.4406 14.2318 7.85993 14.782 8.398C15.3325 8.9393 15.7685 9.58586 16.064 10.2992C16.3595 11.0125 16.5085 11.7779 16.502 12.55C16.502 13.372 16.352 14.14 16.05 14.853C15.7474 15.5535 15.3097 16.1875 14.7618 16.7185C14.2139 17.2496 13.5666 17.6674 12.857 17.948C12.0756 18.2474 11.2447 18.3967 10.408 18.388C9.51398 18.388 8.69298 18.242 7.94498 17.948C7.23257 17.6623 6.58351 17.2389 6.03498 16.702C5.50013 16.1736 5.07409 15.5454 4.78098 14.853C4.47655 14.1237 4.3228 13.3403 4.32898 12.55C4.32898 11.729 4.47898 10.966 4.78098 10.261C5.07153 9.56311 5.49777 8.92987 6.03498 8.398C6.58161 7.86219 7.23143 7.44304 7.94498 7.166C8.69298 6.863 9.51498 6.711 10.408 6.711V6.711ZM10.408 9.499C9.98998 9.499 9.59198 9.577 9.21298 9.733C8.84298 9.88 8.51798 10.09 8.23598 10.364C7.95248 10.6406 7.72499 10.9693 7.56598 11.332C7.39818 11.7159 7.31366 12.131 7.31798 12.55C7.31798 12.99 7.39998 13.396 7.56598 13.768C7.73098 14.139 7.95398 14.462 8.23598 14.736C8.51798 15.01 8.84398 15.225 9.21298 15.381C9.59198 15.528 9.98998 15.601 10.408 15.601C10.826 15.601 11.22 15.528 11.589 15.381C11.969 15.225 12.299 15.01 12.581 14.736C12.872 14.462 13.101 14.139 13.266 13.768C13.431 13.396 13.514 12.99 13.514 12.55C13.514 12.11 13.431 11.704 13.266 11.332C13.1051 10.9666 12.8721 10.6373 12.581 10.364C12.2965 10.0889 11.959 9.8745 11.589 9.734C11.2156 9.57663 10.8142 9.49668 10.409 9.499H10.408Z"
    fill="#607D8B" />
</svg>

<?xml version="1.0" encoding="UTF-8"?>
<svg fill="none" version="1.1" viewBox="0 0 24 24" xmlns="http://www.w3.org/2000/svg">
 <g transform="translate(-.4 -.49913)">
  <path d="m10.786 2.006c-2.4-0.083-4.8 0.666-6.786 2.249l1.324 0.75c1.573-1.167 3.559-1.666 5.462-1.583z" fill="#2979ff"/>
  <path d="m17.82 5.17c-1.654-1.748-3.806-2.83-6.123-3.08v1.415c1.9496 0.32121 3.7463 1.2546 5.13 2.665l0.994-1z" fill="#448aff"/>
  <path d="m20.8 12c-0.083-2.166-0.91-4.33-2.317-6.163l-0.993 1c1.158 1.582 1.82 3.33 1.903 5.163z" fill="#7e57c2"/>
  <path d="m18.483 19.162c1.407-1.832 2.234-3.998 2.317-6.163h-1.407c-0.082 1.832-0.745 3.581-1.903 5.163z" fill="#ab47bc"/>
  <path d="m11.697 22.91c2.234-0.25 4.469-1.333 6.124-3.082l-0.993-1c-1.407 1.5-3.228 2.416-5.131 2.666v1.415z" fill="#d81b60"/>
  <path d="m4 20.744c1.92 1.5374 4.3278 2.3351 6.786 2.248v-1.415c-1.903 0.083-3.807-0.417-5.462-1.583z" fill="#f50057"/>
  <path d="m10.408 6.711c0.885 0 1.701 0.152 2.45 0.455 0.7189 0.2746 1.3738 0.69393 1.924 1.232 0.5505 0.5413 0.9865 1.1879 1.282 1.9012 0.2955 0.7133 0.4445 1.4787 0.438 2.2508 0 0.822-0.15 1.59-0.452 2.303-0.3026 0.7005-0.7403 1.3345-1.2882 1.8655-0.5479 0.5311-1.1952 0.9489-1.9048 1.2295-0.7814 0.2994-1.6123 0.4487-2.449 0.44-0.89402 0-1.715-0.146-2.463-0.44-0.71241-0.2857-1.3615-0.7091-1.91-1.246-0.53485-0.5284-0.96089-1.1566-1.254-1.849-0.30443-0.7293-0.45818-1.5127-0.452-2.303 0-0.821 0.15-1.584 0.452-2.289 0.29055-0.69789 0.71679-1.3311 1.254-1.863 0.54663-0.53581 1.1964-0.95496 1.91-1.232 0.748-0.303 1.57-0.455 2.463-0.455zm0 2.788c-0.41802 0-0.81602 0.078-1.195 0.234-0.37 0.147-0.695 0.357-0.977 0.631-0.2835 0.2766-0.51099 0.6053-0.67 0.968-0.1678 0.3839-0.25232 0.799-0.248 1.218 0 0.44 0.082 0.846 0.248 1.218 0.165 0.371 0.388 0.694 0.67 0.968s0.608 0.489 0.977 0.645c0.379 0.147 0.777 0.22 1.195 0.22 0.418 0 0.812-0.073 1.181-0.22 0.38-0.156 0.71-0.371 0.992-0.645 0.291-0.274 0.52-0.597 0.685-0.968 0.165-0.372 0.248-0.778 0.248-1.218s-0.083-0.846-0.248-1.218c-0.1609-0.3654-0.3939-0.6947-0.685-0.968-0.2845-0.2751-0.622-0.4895-0.992-0.63-0.3734-0.15737-0.7748-0.23732-1.18-0.235z" fill="#607d8b"/>
 </g>
</svg>
